X:486
T:Miss Mcdonald
N:anon.
O:Ireland
B:Francis O'Neill: "The Dance Music of Ireland" (1907) no. 486
R:Reel
Z:Transcribed by Frank Nordberg - http://www.musicaviva.com
N:Music Aviva - The Internet center for free sheet music downloads
M:C|
L:1/8
K:G
dc|:B>G (3GGG BGdG|B>G (3GGG g2 fg|aA (3AAA AcBA|[1(3Bcd ef gedc:|[2(3Bcd
 ef gedB||
TGFGD EDEF|GFGD B,G,B,D|TGFGD EDEG|[1(3efg dB BAAB:|[2(3efg dB BAAf||g>"^
